X: 1
T: the Frost is All Over
T: the American Dwarf
O: Trad
Z: John Chambers <jc:trillian.mit.edu>
R: jig
M: 6/8
L: 1/8
K: D
   A \
| "D"def edB | AFD "A7"E2D | "D"DFA "Bm"AFA | "E(m)"Bee "A7"edB \
| "D"def edB | AFD "A7"E2D | "D"DFA AFA | "G"Bdd "D"d2 :|
|: g \
| "D"fdf afd | "G"gfg "(A7)"bag | "D"fdf "Bm"afd | "Em"gfg "A7"e2g \
| "D"fdf afd | "G"gfg "(A7)"bag | "D"fga "A7"efg | "D"fdd d2 :|
